!!!OTL: Reveille.
!!!OTL-incipit: DES MORGENS ZWISCHEN DREIN UND VIEREN
!!!COM: Volksweise
!!!ARE: Europa, Mitteleuropa, Deutschland
!!!SCT: F0580
!!!TXL: @@DE
!!!YEM: Copyright 1995, estate of Helmut Schaffrath.
**kern	**text
*ICvox	*
*clefG2	*
*M4/4	*
*met(c)	*
*k[b-]	*
*F:	*
!LO:TX:a:t=Mäßig.	!
{8fL	1._Des
8aJ	.
=1	=1
8cc	Morgens
8cc	.
8cc	ʒwiſchen
8ff	.
4a	drei'n
4f	und
=2	=2
4dd	vie-
4cc	-ren,
4r}	.
{8fL	da
8aJ	.
=3	=3
8cc	müſſen
8cc	.
8cc	die
8cc	Sol-
8ddL	-da-
8ccJ	.
8b-	-ten
8a	mar-
=4	=4
4a	-ſchi-
4g	-ren
4r}	.
{8fL	das
8aJ	.
=5	=5
4.cc	Gäßlein
8a	.
8b-L	auf
8aJ	.
8b-L	und
8ccJ	.
=6	=6
4a	ab;
4r	.
4r}	.
{8ffL	mein
8ddJ	.
=7	=7
4.cc	Schätʒel
8a	.
8ccL	ſieht
8b-J	.
8aL	her-
8gJ	.
=8	=8
4f	-ab.
8r}	.
{8f	Trala-
8cc	.
8cc	-li,
8cc	tra-
8cc	-lei-
=9	=9
(8cc/L	-dei,
8aJ'')	.
(8b-L	dei,
8gJ'')	.
8f	tra-
8cc	-la-
8cc	-li,
8cc	tra-
=10	=10
(8cc/L	-lai,
8aJ'')	.
(8b-L	dei,
8gJ'')	.
4r}	.
{8ffL	mein
8ddJ	.
=11	=11
4.cc	Schätʒel
8a	.
8cc/L	ſieht
8b-J	.
8aL	her-
8gJ	.
=12	=12
4f	-ab.
4r	.
4r}	.
==	==
!!!AGN: Soldaten - Lied
!!!ONB: ESAC (Essen Associative Code) Database: FINK
!!!AMT: simple quadruple
!!!AIN: vox
!!!EED: Helmut Schaffrath
!!!EEV: 1.0
!!Text: Volkslied
!!!URL-scan: https://www.digitale-sammlungen.de/en/view/bsb11144622?page=344
!!!source: Musikalischer Hausschatz der Deutschen. Eine Sammlung von über 1000 Liedern und Gesängen mit Singstimmen und Klavierbegleitung. Leipzig, Litterarisches Verlags-Haus.
!!!page: 377
!!!ENC: Anna Maria Matuszewska
!!!EEV: 2024/08/02
*-	*-